X:1
T:O   magnum mysterium
T:Tomás Luis de Victoria (c. 1548 - 1611)
T:O großes Geheimnis und wunderbares Heiligtum, dass Tiere den geborenen Herrn sahen, in der Krippe liegend. Selig die Jungfrau, deren Leib würdig war, Christus den Herrn zu tragen. Halleluja.
T:O magnum mysterium et admirabile sacramentum, ut animalia viderent Dominum natum, jacentem in praesepio. Beata Virgo, cujus viscera meruerunt portare Dominum Christum. Alleluia.
T:O magnum mysterium
T:in Circumcisione Domini
T:©
T:©
T:©
T:©
T:©
Z:©
%%score [ 1 2 3 4 ]
L:1/8
Q:1/4=120
M:2/2
K:G
V:1 treble nm="Cantus" snm="C."
V:2 treble nm="Altus" snm="A."
V:3 treble-8 nm="Tenor" snm="T."
V:4 bass nm="Bassus" snm="B."
V:1
 B8 | E4 B4- | B2 B2 c2 c2 | B4 z2 e2 | c2 d2 e3 e | e2 B2 c2 B2- | BAGF GABG | AG GF/E/ F4- | %8
w: O|ma- gnum|_ my- ste- ri-|um et|ad- mi- ra- bi-|le sa- cra- men-|||
 F4 E4 | ^G8 | A4 ^G3 A | B2 c3 B A2- | A2 ^G2 A2 =GF | E2 F2 G4 | z2 e2 c2 d2 | e3 e e2 c2 | %16
w: * tum,|o|ma- gnum _|_ my- * *|* * ste- * *|* ri- um|et ad- mi-|ra- bi- le, et|
 A2 B2 c3 c | c2 B3 A A2- | A2 ^G2 A4 | z8 | z2 c2 B3 ^G | A2 B2 c2 A2 | c3 c c2 c2 | B4 B4 | %24
w: ad- mi- ra- bi-|le sa- cra- men-|* * tum||ut a- ni-|ma- li- a vi-|de- rent Do- mi-|num na-|
 ^G2 B2 B3 B | B2 ^c2 d4 | c3 B/A/ B4 | c4 B4 | z8 | z2 E2 A4 | G2 E2 F2 ^G2 | A3 B c2 c2 | B4 z4 | %33
w: tum, vi- de- rent|Do- mi- num|na- * * *|* tum||ia- cen-|tem in prae- *|se- * * pi-|o|
 z8 | z2 A2 d4 | c2 A2 B2 ^c2 | d3 =c BA A2- | A2 ^GF G2 G2 | A4 z4 | ^G6 G2 | ^G4 A4 | %41
w: |ia- cen-|tem in prae- *|se- * * * *|* * * * pi-|o.|O be-|a- ta|
 ^G3 A B2 c2- | cB B3 A A2 | B2 ^G4 G2 | A3 A A4 | z2 A3 BcA | B2 e2 d4 | c2 e2 d2 B2 | %48
w: Vir- * * *||go, cu- ius|vi- sce- ra|me- * * *|* ru- e-|runt por- ta- re|
 c3 BAG GF/E/ | F2 F2 E2 B2- | B2 G4 c2- | cB A4 G2 ||[M:3/4] A4 c2 | B4 ^G2 | A3 GAB | c2 B4 | %56
w: Do- * * * * * *|* mi- num Ie-|* sum Chri-||stum. Al-|le- lu-|ia, al- * *|le- lu-|
 c4 A2 | G4 E2 | F3 EFG | A4 ^G2 | A6 | z2 z2 d2 | c3 BcA | B2 GABc | d4 d2 | c2 e4 ||[M:2/2] e8 | %67
w: ia, al-|le- lu-|ia, al- * *|le- lu-|ia|al-|le- * * *|* lu- * * *|ia, al-|le- lu-|ia|
 z2 e2 edcB | A2 d3 cBA | ^G2 A4 G2 | A8- | A8- | A8- | A16 |] %74
w: al- le- * * *|* lu- * * *||ia.|_|||
V:2
 z8 | z4 E4- | E4 A,4 | E6 E2 | =F2 F2 E4 | z2 E2 C2 D2 | E3 E E2 B,2 | C2 E4 ^D^C | ^D4 E4 | E8 | %10
w: |O|_ ma-|gnum my-|ste- ri- um|et ad- mi-|ra- bi- le sa-|cra- men- * *|* tum,|o|
 E4 E3 F | =G2 G,2 A,3 B, | C2 B,2 A,2 E2 | E2 D2 B,3 B, | B,2 C3 B, A,2- | A,2 ^G,2 A,2 A2 | %16
w: ma- gnum _|_ my- ste- *|* ri- um, et|ad- mi- ra- bi-|le sa- cra- men-|* * tum, et-|
 E2 G2 G3 G | G4 E2 =F2 | E4 E4- | E4 z4 | z2 A2 G3 E | F2 ^G2 A2 E2 | E3 E E2 F2 | G4 F4 | %24
w: ad- mi- ra- bi-|le sa- cra-|men- tum|_|ut a- ni-|ma- li- a vi-|de- rent Do- mi-|num na-|
 E2 G2 G3 G | G2 G2 A2 B2- | BA A4 ^G2 | A2 E2 G3 F/G/ | A2 GF E2 B,2 | z4 z2 A,2 | E4 D2 B,2 | %31
w: tum, vi- de- rent|Do- mi- num na-||tum, ia- cen- * *|* * * * tem|ia-|cen- tem in|
 ^C2 D2 EDEF | G3 F/G/ A2 GF | E4 z2 B,2 | E4 D2 B,2 | CDEF G4 | A3 G=FE F2 | E6 E2 | ^C4 z4 | %39
w: prae- * se- * * *|* * * * pi- *|o ia-|cen- tem in|prae- * * * *|se- * * * *|* pi-|o.|
 E6 E2 | E4 E4 | E8- | E8 | E4 z2 E2- | E2 E2 =F3 F | E2 A,B,CDEF | G2 G2 G4 | E2 E2 F2 ^G2 | %48
w: O- be-|a- ta|Vir-||go cu-|* ius vi- sce-|ra me- * * * * *|* ru- e-|runt por- ta- re|
 A3 GFE E2- | E2 ^D2 E2 G2- | GFED E4 | C2 D2 E4 ||[M:3/4] E4 A2 | G4 E2 | F3 EFG | A4 ^G2 | %56
w: Do- * * * *|* mi- num Ie-||sum _ Chri-|stum. Al-|le- lu-|ia, al- * *|le- lu-|
 A4 E2 | E4 B,2 | D4 D2 | E2 E4 | E4 C2 | A,4 G,2 | A,4 A2 | G4 E2 | F3 EFG | A4 ^G2 || %66
w: ia, al-|le- lu-|ia, al-|le- lu-|ia, al-|le- lu-|ia, al-|le- lu-|ia, al- * *|le- lu-|
[M:2/2] A4 z2 E2 | EDCB, A,2 A2- | AG=FE D2 F2 | E4 z2 B,2 | C3 D E2 =F2- | F2 E2 D3 E | =F4 E4- | %73
w: ia al-|le- * * * * lu-||ia al-|le- * * lu-||* ia.|
 E16 |] %74
w: _|
V:3
 z8 | z8 | z8 | z8 | z8 | z8 | z8 | z4 B4- | B4 E4 | B6 B2 | c2 c2 B4 | z2 e2 c2 d2 | e3 e e2 B2 | %13
w: |||||||O|_ ma-|gnum my-|ste- ri- um|et ad- mi-|ra- bi- le sa-|
 c2 B3 AGF | G4 A4 | B4 c2 e2 | c2 d2 e3 e | e2 d2 c2 d2 | B4 A2 c2 | B3 ^G A2 B2 | c2 A2 e3 e | %21
w: cra- men- * * *||* tum, et|ad- mi- ra- bi-|le sa- cra- *|men- tum, ut|a- ni- ma- li-|a, ut a- ni-|
 d2 B2 A2 c2 | c3 c c2 c2 | d2 e4 ^d2 | e2 E2 e3 e | e2 e2 d4 | =f4 e4 | z2 A2 e4 | d2 B2 ^c2 d2 | %29
w: ma- li- a vi-|de- rent Do- mi-|num na- *|tum, vi- de- rent|Do- mi- num|na- tum|ia- cen-|tem in prae- *|
 edcB ABcA | B6 B2 | A4 z2 A2 | e4 d2 B2 | c2 B3 AGF | G2 A4 ^G2 | A2 c2 d2 e2 | =f3 edc d2 | %37
w: se- * * * * * * *|* pi-|o ia-|cen- tem in-|prae- se- * * *|* * pi-|o, in prae- *|se- * * * *|
 c2 BA B2 B2 | A4 z4 | B6 B2 | B4 c4 | B6 A2 | B4 c4 | B2 B4 B2 | ^c3 c d2 AB | cd e4 c2 | %46
w: * * * * pi-|o.|O be-|a- ta|Vir- *||go, cu- ius|vi- sce- ra me- *|* * * ru-|
 d2 c4 B2 | c2 c2 d2 e2 | A6 c2 | B8 | G8 | A4 B4 ||[M:3/4] A4 A2 | e4 e2 | d4 d2 | A2 e4 | A4 c2 | %57
w: e- * *|runt por- ta- re|Do- mi-|num|Ie-|sum Chri-|stum. Al-|le- lu-|ia, al-|le- lu-|ia, al-|
 B4 G2 | A3 GAB | c2 B4 | A4 E2 | F2 D4 | E4 c2 | B4 G2 | A4 A2 | A2 B4 ||[M:2/2] A2 c2 BAGF | %67
w: le- lu-|ia, al- * *|le- lu-|ia, al-|le- lu-|ia, al-|le- lu-|ia, al-|le- lu-|ia, al- le- * * *|
 E2 ABcdec | d3 e=fedc | B2 A2 B2 e2 | edcB A2 c2 | d2 e2 =f3 e | d6 ^cB | ^c16 |] %74
w: * lu- * * * * *||* * ia, al-|le- * * * * lu-|||ia.|
V:4
 z8 | z8 | z8 | z8 | z8 | z8 | z8 | z8 | z8 | E,8 | A,,4 E,4- | E,2 E,2 =F,2 F,2 | E,4 z2 E,2 | %13
w: |||||||||O|ma- gnum|_ my- ste- ri-|um et|
 C,2 D,2 E,3 E, | E,2 C,2 =F,4 | E,4 A,,2 A,,2 | A,2 G,2 C,3 C, | C,2 G,2 A,2 D,2 | E,4 A,,2 A,2 | %19
w: ad- mi- ra- bi-|le sa- cra-|men- tum, et-|ad- mi- ra- bi-|le sa- cra- *|men- tum, ut|
 G,3 E, F,2 ^G,2 | A,4 z4 | z4 z2 A,,2 | A,3 A, A,2 A,2 | G,3 A, B,4 | E,4 z4 | z8 | z4 z2 E,2 | %27
w: a- ni- ma- li-|a|vi-|de- rent Do- mi-|num _ na-|tum||ia-|
 A,4 G,2 E,2 | F,2 G,2 A,2 G,F, | E,3 G, =F,2 F,2 | E,4 z4 | z2 D,2 A,4 | G,2 E,2 F,2 G,2 | %33
w: cen- tem in|prae- * se- * *|* * * pi-|o|ia- cen-|tem in prae- *|
 A,2 G,F, E,3 D, | C,2 B,,A,, B,,2 B,,2 | A,,2 A,2 G,2 E,2 | D,8 | E,6 E,2 | A,,4 z4 | E,6 E,2 | %40
w: se- * * * *|* * * * pi-|o, in prae- *|se-|* pi-|o.|O be-|
 E,4 A,,4 | E,3 F, ^G,2 A,2- | A,^G, G,2 A,4 | E,2 E,4 E,2 | A,3 A, D,4 | A,6 A,2 | G,2 C,2 G,4 | %47
w: a- ta|Vir- * * *||go, cu- ius|vi- sce- ra|me- ru-|e- * *|
 C,4 z4 | z8 | z4 E,4- | E,4 C,4 | =F,4 E,4 ||[M:3/4] A,,4 z2 | z6 | z6 | z6 | z4 A,,2 | E,4 E,2 | %58
w: runt||Ie-|* sum|Cri- *|stum.||||Al-|le- lu-|
 D,4 D,2 | A,,2 E,4 | A,,4 A,,2 | D,2 B,,4 | A,,4 A,,2 | E,4 E,2 | D,4 D,2 | =F,2 E,4 || %66
w: ia, al-|le- lu-|ia, al-|le- lu-|ia, al-|le- lu-|ia, al-|le- lu-|
[M:2/2] A,,2 A,2 G,F,E,D, | C,B,,A,,G,, A,,4 | D,8 | E,8 | A,,2 A,2 A,G,=F,E, | D,2 ^C,2 D,4- | %72
w: ia, al- le- * * *||lu-||ia, al- le- * * *|* * lu-|
 D,4 A,,4- | A,,16 |] %74
w: * ia.|_|

